X:4320
T:Moll of the Wood
O:england
M:6/8
L:1/8
K:G
|:BAB G2F|E2F G2A|BAB dcB|[1A2F D2D:|[2A2F D2c
|:BGB d2c|BGB d2c|BGB dcB|[1A2F D2c:|[2A2F D3|]


